flags/by.svg

<svg width="512" height="512" viewBox="0 0 512 512" fill="none" xmlns="http://www.w3.org/2000/svg">
<rect y="300.556" width="512" height="211.444" fill="var(--flag-palette-green, #6da544)"/>
<rect width="512" height="345.044" fill="var(--flag-palette-dark-red, #a2001d)"/>
<g clip-path="url(#clip0_1_3006)">
<rect width="102.4" height="512" fill="var(--flag-palette-dark-red, #a2001d)"/>
<path d="M51.2006 51.1998L25.6006 -0.404991L51.2006 -51.2002L76.8006 -0.404991L51.2006 51.1998Z" fill="var(--flag-palette-bright-white, #fcfcfc)"/>
<path d="M102.401 51.1998L76.8008 -0.404991L102.401 -51.2002L128.001 -0.404991L102.401 51.1998Z" fill="var(--flag-palette-bright-white, #fcfcfc)"/>
<path d="M0.000392914 51.1998L-25.5996 -0.404991L0.000392914 -51.2002L25.6004 -0.404991L0.000392914 51.1998Z" fill="var(--flag-palette-bright-white, #fcfcfc)"/>
<path d="M51.2006 153.6L25.6006 101.995L51.2006 51.1997L76.8006 101.995L51.2006 153.6Z" fill="var(--flag-palette-bright-white, #fcfcfc)"/>
<path d="M102.401 153.6L76.8008 101.995L102.401 51.1997L128.001 101.995L102.401 153.6Z" fill="var(--flag-palette-bright-white, #fcfcfc)"/>
<path d="M0.000392914 153.6L-25.5996 101.995L0.000392914 51.1997L25.6004 101.995L0.000392914 153.6Z" fill="var(--flag-palette-bright-white, #fcfcfc)"/>
<path d="M51.2006 256L25.6006 204.395L51.2006 153.6L76.8006 204.395L51.2006 256Z" fill="var(--flag-palette-bright-white, #fcfcfc)"/>
<path d="M102.401 256L76.8008 204.395L102.401 153.6L128.001 204.395L102.401 256Z" fill="var(--flag-palette-bright-white, #fcfcfc)"/>
<path d="M0.000392914 256L-25.5996 204.395L0.000392914 153.6L25.6004 204.395L0.000392914 256Z" fill="var(--flag-palette-bright-white, #fcfcfc)"/>
<path d="M51.2006 358.4L25.6006 306.795L51.2006 256L76.8006 306.795L51.2006 358.4Z" fill="var(--flag-palette-bright-white, #fcfcfc)"/>
<path d="M102.401 358.4L76.8008 306.795L102.401 256L128.001 306.795L102.401 358.4Z" fill="var(--flag-palette-bright-white, #fcfcfc)"/>
<path d="M0.000392914 358.4L-25.5996 306.795L0.000392914 256L25.6004 306.795L0.000392914 358.4Z" fill="var(--flag-palette-bright-white, #fcfcfc)"/>
<path d="M51.2006 460.8L25.6006 409.195L51.2006 358.4L76.8006 409.195L51.2006 460.8Z" fill="var(--flag-palette-bright-white, #fcfcfc)"/>
<path d="M51.2006 563.2L25.6006 511.595L51.2006 460.8L76.8006 511.595L51.2006 563.2Z" fill="var(--flag-palette-bright-white, #fcfcfc)"/>
<path d="M102.401 460.8L76.8008 409.195L102.401 358.4L128.001 409.195L102.401 460.8Z" fill="var(--flag-palette-bright-white, #fcfcfc)"/>
<path d="M102.401 563.2L76.8008 511.595L102.401 460.8L128.001 511.595L102.401 563.2Z" fill="var(--flag-palette-bright-white, #fcfcfc)"/>
<path d="M0.000392914 460.8L-25.5996 409.195L0.000392914 358.4L25.6004 409.195L0.000392914 460.8Z" fill="var(--flag-palette-bright-white, #fcfcfc)"/>
<path d="M0.000392914 563.2L-25.5996 511.595L0.000392914 460.8L25.6004 511.595L0.000392914 563.2Z" fill="var(--flag-palette-bright-white, #fcfcfc)"/>
</g>
<defs>
<clipPath id="clip0_1_3006">
<rect width="102.4" height="512" fill="white"/>
</clipPath>
</defs>
</svg>

<svg xmlns="http://www.w3.org/2000/svg" width="512" height="512" fill="none"><path fill="var(--flag-palette-green, #6da544)" d="M0 300.6h512V512H0z"/><path fill="var(--flag-palette-dark-red, #a2001d)" d="M0 0h512v345H0z"/><g clip-path="url(#a)"><path fill="var(--flag-palette-dark-red, #a2001d)" d="M0 0h102.4v512H0z"/><path fill="var(--flag-palette-bright-white, #fcfcfc)" d="M51.2 51.2 25.6-.4l25.6-50.8L76.8-.4zm51.2 0L76.8-.4l25.6-50.8L128-.4zM0 51.2-25.6-.4 0-51.2 25.6-.4zm51.2 102.4L25.6 102l25.6-50.8L76.8 102zm51.2 0L76.8 102l25.6-50.8L128 102zM0 153.6-25.6 102 0 51.2 25.6 102zM51.2 256l-25.6-51.6 25.6-50.8 25.6 50.8zm51.2 0-25.6-51.6 25.6-50.8 25.6 50.8zM0 256l-25.6-51.6L0 153.6l25.6 50.8zm51.2 102.4-25.6-51.6L51.2 256l25.6 50.8z"/><path fill="var(--flag-palette-bright-white, #fcfcfc)" d="m102.4 358.4-25.6-51.6 25.6-50.8 25.6 50.8zM0 358.4l-25.6-51.6L0 256l25.6 50.8zm51.2 102.4-25.6-51.6 25.6-50.8 25.6 50.8zm0 102.4-25.6-51.6 25.6-50.8 25.6 50.8zm51.2-102.4-25.6-51.6 25.6-50.8 25.6 50.8zm0 102.4-25.6-51.6 25.6-50.8 25.6 50.8zM0 460.8l-25.6-51.6L0 358.4l25.6 50.8zm0 102.4-25.6-51.6L0 460.8l25.6 50.8z"/></g><defs><clipPath id="a"><path fill="#fff" d="M0 0h102.4v512H0z"/></clipPath></defs></svg>
